html/dist/img/svg/inst.svg

<svg width="74" height="74" viewBox="0 0 74 74" fill="none" xmlns="http://www.w3.org/2000/svg">
<path d="M62.9 16.65C62.9 19.7152 60.4152 22.2 57.35 22.2C54.2848 22.2 51.8 19.7152 51.8 16.65C51.8 13.5848 54.2848 11.1 57.35 11.1C60.4152 11.1 62.9 13.5848 62.9 16.65Z" fill="white"/>
<path fill-rule="evenodd" clip-rule="evenodd" d="M37 55.5C47.2173 55.5 55.5 47.2173 55.5 37C55.5 26.7827 47.2173 18.5 37 18.5C26.7827 18.5 18.5 26.7827 18.5 37C18.5 47.2173 26.7827 55.5 37 55.5ZM37 48.1C43.1304 48.1 48.1 43.1304 48.1 37C48.1 30.8696 43.1304 25.9 37 25.9C30.8696 25.9 25.9 30.8696 25.9 37C25.9 43.1304 30.8696 48.1 37 48.1Z" fill="white"/>
<path fill-rule="evenodd" clip-rule="evenodd" d="M0 35.52C0 23.0868 0 16.8703 2.41966 12.1214C4.54804 7.94421 7.94421 4.54804 12.1214 2.41966C16.8703 0 23.0868 0 35.52 0H38.48C50.9132 0 57.1297 0 61.8786 2.41966C66.0558 4.54804 69.452 7.94421 71.5803 12.1214C74 16.8703 74 23.0868 74 35.52V38.48C74 50.9132 74 57.1297 71.5803 61.8786C69.452 66.0558 66.0558 69.452 61.8786 71.5803C57.1297 74 50.9132 74 38.48 74H35.52C23.0868 74 16.8703 74 12.1214 71.5803C7.94421 69.452 4.54804 66.0558 2.41966 61.8786C0 57.1297 0 50.9132 0 38.48V35.52ZM35.52 7.4H38.48C44.8187 7.4 49.1277 7.40576 52.4583 7.67788C55.7026 7.94295 57.3617 8.4234 58.5191 9.0131C61.3039 10.432 63.568 12.6961 64.9869 15.4809C65.5766 16.6383 66.0571 18.2974 66.3221 21.5417C66.5942 24.8723 66.6 29.1813 66.6 35.52V38.48C66.6 44.8187 66.5942 49.1277 66.3221 52.4583C66.0571 55.7026 65.5766 57.3617 64.9869 58.5191C63.568 61.3039 61.3039 63.568 58.5191 64.9869C57.3617 65.5766 55.7026 66.0571 52.4583 66.3221C49.1277 66.5942 44.8187 66.6 38.48 66.6H35.52C29.1813 66.6 24.8723 66.5942 21.5417 66.3221C18.2974 66.0571 16.6383 65.5766 15.4809 64.9869C12.6961 63.568 10.432 61.3039 9.0131 58.5191C8.4234 57.3617 7.94295 55.7026 7.67788 52.4583C7.40576 49.1277 7.4 44.8187 7.4 38.48V35.52C7.4 29.1813 7.40576 24.8723 7.67788 21.5417C7.94295 18.2974 8.4234 16.6383 9.0131 15.4809C10.432 12.6961 12.6961 10.432 15.4809 9.0131C16.6383 8.4234 18.2974 7.94295 21.5417 7.67788C24.8723 7.40576 29.1813 7.4 35.52 7.4Z" fill="white"/>
</svg>

<svg width="74" height="74" viewBox="0 0 74 74" fill="none" xmlns="http://www.w3.org/2000/svg"><path d="M62.9 16.65a5.55 5.55 0 11-11.1 0 5.55 5.55 0 0111.1 0z" fill="#fff"/><path fill-rule="evenodd" clip-rule="evenodd" d="M37 55.5c10.217 0 18.5-8.283 18.5-18.5S47.217 18.5 37 18.5 18.5 26.783 18.5 37 26.783 55.5 37 55.5zm0-7.4c6.13 0 11.1-4.97 11.1-11.1S43.13 25.9 37 25.9 25.9 30.87 25.9 37 30.87 48.1 37 48.1z" fill="#fff"/><path fill-rule="evenodd" clip-rule="evenodd" d="M0 35.52c0-12.433 0-18.65 2.42-23.399a22.2 22.2 0 019.7-9.701C16.871 0 23.087 0 35.52 0h2.96c12.433 0 18.65 0 23.399 2.42a22.2 22.2 0 019.701 9.701C74 16.871 74 23.087 74 35.52v2.96c0 12.433 0 18.65-2.42 23.399a22.199 22.199 0 01-9.701 9.701C57.129 74 50.913 74 38.48 74h-2.96c-12.433 0-18.65 0-23.399-2.42a22.2 22.2 0 01-9.701-9.7C0 57.129 0 50.913 0 38.48v-2.96zM35.52 7.4h2.96c6.339 0 10.648.006 13.978.278 3.245.265 4.904.745 6.061 1.335a14.8 14.8 0 016.468 6.468c.59 1.157 1.07 2.816 1.335 6.06.272 3.331.278 7.64.278 13.979v2.96c0 6.339-.006 10.648-.278 13.978-.265 3.245-.745 4.904-1.335 6.061a14.8 14.8 0 01-6.468 6.468c-1.157.59-2.816 1.07-6.06 1.335-3.331.272-7.64.278-13.979.278h-2.96c-6.339 0-10.648-.006-13.978-.278-3.245-.265-4.904-.745-6.061-1.335a14.8 14.8 0 01-6.468-6.468c-.59-1.157-1.07-2.816-1.335-6.06-.272-3.331-.278-7.64-.278-13.979v-2.96c0-6.339.006-10.648.278-13.978.265-3.245.745-4.904 1.335-6.061a14.8 14.8 0 016.468-6.468c1.157-.59 2.816-1.07 6.06-1.335 3.331-.272 7.64-.278 13.979-.278z" fill="#fff"/></svg>
